public/svg/search.svg

<svg height="23" viewBox="0 0 23 23" width="23" xmlns="http://www.w3.org/2000/svg"><path d="m22.6503001 20.9493558-5.6698935-5.6932732c1.4578293-1.6731384 2.2565825-3.7782888 2.2565825-5.96984168 0-5.1203525-4.3149403-9.28624092-9.61849455-9.28624092-5.30355426 0-9.61849455 4.16588842-9.61849455 9.28624092 0 5.12035248 4.31494029 9.28624088 9.61849455 9.28624088 1.99102835 0 3.88838095-.5797844 5.51056095-1.6804058l5.7129676 5.7364744c.2387896.2394235.5599637.3714496.9041385.3714496.3257742 0 .6348206-.1199136.8694283-.3379384.4984889-.4631008.5143803-1.2310326.0347102-1.7127058zm-13.03180555-18.52685817c3.92016385 0 7.10932205 3.07899449 7.10932205 6.86374329 0 3.78474878-3.1891582 6.86374328-7.10932205 6.86374328-3.92016382 0-7.10932206-3.0789945-7.10932206-6.86374328 0-3.7847488 3.18915824-6.86374329 7.10932206-6.86374329z" fill="#fff"/></svg>

<?xml version="1.0" encoding="UTF-8"?>
<svg width="23px" height="23px" viewBox="0 0 23 23" version="1.1" xmlns="http://www.w3.org/2000/svg" xmlns:xlink="http://www.w3.org/1999/xlink">
    <title>search</title>
    <g id="Page-1" stroke="none" stroke-width="1" fill="none" fill-rule="evenodd">
        <g id="Home-desktop" transform="translate(-783.000000, -390.000000)" fill="#FFFFFF" fill-rule="nonzero">
            <g id="search" transform="translate(783.000000, 390.000000)">
                <path d="M22.6503001,20.9493558 L16.9804066,15.2560826 C18.4382359,13.5829442 19.2369891,11.4777938 19.2369891,9.28624092 C19.2369891,4.16588842 14.9220488,0 9.61849455,0 C4.31494029,0 0,4.16588842 0,9.28624092 C0,14.4065934 4.31494029,18.5724818 9.61849455,18.5724818 C11.6095229,18.5724818 13.5068755,17.9926974 15.1290555,16.892076 L20.8420231,22.6285504 C21.0808127,22.8679739 21.4019868,23 21.7461616,23 C22.0719358,23 22.3809822,22.8800864 22.6155899,22.6620616 C23.1140788,22.1989608 23.1299702,21.431029 22.6503001,20.9493558 Z M9.61849455,2.42249763 C13.5386584,2.42249763 16.7278166,5.50149212 16.7278166,9.28624092 C16.7278166,13.0709897 13.5386584,16.1499842 9.61849455,16.1499842 C5.69833073,16.1499842 2.50917249,13.0709897 2.50917249,9.28624092 C2.50917249,5.50149212 5.69833073,2.42249763 9.61849455,2.42249763 Z" id="Shape"></path>
            </g>
        </g>
    </g>
</svg>
